svg/furkot/icomoon/google-plus.svg

<svg viewBox="0 0 512 512" xmlns="http://www.w3.org/2000/svg"><path d="m.4 434.832c-.12-1.264-.224-2.536-.288-3.816.064 1.28.168 2.552.288 3.816zm117.552-152.256c46.008 1.368 76.864-46.352 68.928-106.6-7.944-60.24-51.696-108.584-97.704-109.96-46.016-1.368-76.872 44.744-68.928 105 7.944 60.232 51.68 110.184 97.696 111.56zm394.048-154.576v-42.656c0-46.936-38.392-85.344-85.328-85.344h-341.328c-46.136 0-84.008 37.112-85.28 82.96 29.184-25.696 69.664-47.16 111.44-47.16h178.624l-39.976 33.808h-56.632c37.568 14.4 57.576 58.064 57.576 102.864 0 37.624-20.904 69.976-50.44 92.984-28.824 22.448-34.288 31.856-34.288 50.936 0 16.288 30.872 44 47.016 55.392 47.192 33.272 62.456 64.16 62.456 115.728 0 8.216-1.024 16.416-3.032 24.48h153.872c46.936 0 85.328-38.376 85.328-85.344v-266.656h-96v96h-32v-96h-96v-32h96v-96h32v96h96zm-419.056 254.968c10.808 0 20.712-.296 30.968-.296-13.576-13.168-24.312-29.304-24.312-49.192 0-11.8 3.784-23.168 9.064-33.256-5.392.384-10.896.496-16.56.496-37.176 0-68.752-12.04-92.104-31.928v33.624 100.864c26.72-12.688 58.448-20.312 92.936-20.312zm-91.232 60.664c-.56-2.728-.984-5.504-1.272-8.32.288 2.816.712 5.592 1.272 8.32zm226.016 32.792c-7.528-29.4-34.224-43.984-71.44-69.784-13.536-4.368-28.448-6.936-44.448-7.104-44.808-.48-86.552 17.472-110.112 44.184 7.96 38.856 42.52 68.28 83.616 68.28h143.224c.904-5.568 1.352-11.312 1.352-17.216 0-6.264-.768-12.4-2.184-18.36z"/></svg>

<svg xmlns="http://www.w3.org/2000/svg" viewBox="0 0 512 512"><path d="M0.4 434.832C0.28 433.568 0.176 432.296 0.112 431.016 0.176 432.296 0.28 433.568 0.4 434.832ZM117.952 282.576C163.96 283.944 194.816 236.224 186.88 175.976 178.936 115.736 135.184 67.392 89.176 66.016 43.16 64.648 12.304 110.76 20.248 171.016 28.192 231.248 71.928 281.2 117.944 282.576ZM512 128V85.344C512 38.408 473.608 0 426.672 0H85.344C39.208 0 1.336 37.112 0.064 82.96 29.248 57.264 69.728 35.8 111.504 35.8 156.16 35.8 290.128 35.8 290.128 35.8L250.152 69.608H193.52C231.088 84.008 251.096 127.672 251.096 172.472 251.096 210.096 230.192 242.448 200.656 265.456 171.832 287.904 166.368 297.312 166.368 316.392 166.368 332.68 197.24 360.392 213.384 371.784 260.576 405.056 275.84 435.944 275.84 487.512 275.84 495.728 274.816 503.928 272.808 511.992H426.68C473.616 511.992 512.008 473.616 512.008 426.648V159.992H416.008V255.992H384.008V159.992H288.008V127.992H384.008V31.992H416.008V127.992H512.008ZM92.944 382.968C103.752 382.968 113.656 382.672 123.912 382.672 110.336 369.504 99.6 353.368 99.6 333.48 99.6 321.68 103.384 310.312 108.664 300.224 103.272 300.608 97.768 300.72 92.104 300.72 54.928 300.72 23.352 288.68 0 268.792V302.416L0 403.28C26.72 390.592 58.448 382.968 92.936 382.968ZM1.712 443.632C1.152 440.904 0.728 438.128 0.44 435.312 0.728 438.128 1.152 440.904 1.712 443.632ZM227.728 476.424C220.2 447.024 193.504 432.44 156.288 406.64 142.752 402.272 127.84 399.704 111.84 399.536 67.032 399.056 25.288 417.008 1.728 443.72 9.688 482.576 44.248 512 85.344 512H228.568C229.472 506.432 229.92 500.688 229.92 494.784 229.92 488.52 229.152 482.384 227.736 476.424Z"/></svg>
